app/dist/common/images/angle-plc.svg

<svg height="18" viewBox="0 0 18 18" width="18" xmlns="http://www.w3.org/2000/svg"><path d="m0 0h18v18h-18z" fill="#f0f3fa"/><path d="m10.6 8.13-1.6-5.13-1.7 5.1a6.08 6.08 0 0 0 3.3.03zm.19.62a6.52 6.52 0 0 1 -3.7-.03l-1.1 3.26 3.01 3.02 2.84-2.86zm1.61 2.85-.96-3.07c.7-.29 1.36-.7 1.9-1.2l1.66 1.64-2.6 2.62zm-1.16-3.6-1.24-4 3 3a6.1 6.1 0 0 1 -1.76 1zm-6.24-1c.46.4 1.07.76 1.65 1l1.35-4zm.46 4.44.98-2.96a6.36 6.36 0 0 1 -1.79-1.15l-1.65 1.64z" fill="#082340"/></svg>

<!-- by TradingView --><svg width="18" height="18" viewBox="0 0 18 18" xmlns="http://www.w3.org/2000/svg"><path fill="#F0F3FA" d="M0 0h18v18H0z"/><path d="M10.6 8.13 9 3 7.3 8.1a6.08 6.08 0 0 0 3.3.03Zm.19.62a6.52 6.52 0 0 1-3.7-.03l-1.1 3.26L9 15l2.84-2.86-1.05-3.39Zm1.61 2.85-.96-3.07c.7-.29 1.36-.7 1.9-1.2L15 8.97l-2.6 2.62ZM11.24 8 10 4l3 3a6.1 6.1 0 0 1-1.76 1ZM5 7c.46.4 1.07.76 1.65 1L8 4 5 7Zm.46 4.44.98-2.96a6.36 6.36 0 0 1-1.79-1.15L3 8.97l2.46 2.47Z" fill="#082340"/></svg>
